packages/katcn/src/icons/svg/noFlash.svg

<svg width="24" height="25" viewBox="0 0 24 25" fill="none" xmlns="http://www.w3.org/2000/svg">
<path fill-rule="evenodd" clip-rule="evenodd" d="M13.8417 1.39722C14.5221 1.64464 15 2.30247 15 3.11201V9.51201H18.5C19.2734 9.51201 19.8284 10.0207 20.0779 10.5446C20.3305 11.075 20.3676 11.8194 19.889 12.4265L18.5944 14.1195C18.2589 14.5582 17.6313 14.6419 17.1926 14.3064C16.7538 13.9709 16.6702 13.3433 17.0056 12.9046L18.0705 11.512H14C13.4477 11.512 13 11.0643 13 10.512V3.89209L11.0057 6.6044C10.6785 7.04935 10.0526 7.14483 9.60761 6.81766C9.16266 6.49049 9.06718 5.86457 9.39435 5.41962L11.8833 2.0347C12.3557 1.34789 13.1656 1.15135 13.8417 1.39722ZM1.29289 1.6049C1.68342 1.21438 2.31658 1.21438 2.70711 1.6049L16.4978 15.3956C16.5047 15.4023 16.5115 15.4091 16.5182 15.416L22.7071 21.6049C23.0976 21.9954 23.0976 22.6286 22.7071 23.0191C22.3166 23.4096 21.6834 23.4096 21.2929 23.0191L15.8929 17.6192L12.0072 22.6031C11.5335 23.2787 10.7298 23.471 10.0583 23.2268C9.37786 22.9794 8.9 22.3215 8.9 21.512V15.112H5.4C4.59129 15.112 4.06567 14.5622 3.84335 14.0434C3.62604 13.5364 3.60089 12.8669 3.94251 12.2975C3.96405 12.2616 3.98782 12.2271 4.01368 12.1942L6.85357 8.57979L1.29289 3.01912C0.902369 2.62859 0.902369 1.99543 1.29289 1.6049ZM8.27793 10.0042L5.83604 13.112H9.9C10.4523 13.112 10.9 13.5597 10.9 14.112V20.7704L14.4679 16.1942L8.27793 10.0042Z" fill="black"/>
</svg>

<svg xmlns="http://www.w3.org/2000/svg" fill="none" viewBox="0 0 24 25"><path fill="#000" fill-rule="evenodd" d="M13.842 1.397c.68.248 1.158.905 1.158 1.715v6.4h3.5c.773 0 1.328.509 1.578 1.033.253.53.29 1.274-.189 1.882l-1.295 1.693a1 1 0 0 1-1.588-1.215l1.064-1.393H14a1 1 0 0 1-1-1v-6.62l-1.994 2.712A1 1 0 0 1 9.394 5.42l2.49-3.385a1.665 1.665 0 0 1 1.958-.638m-12.55.208a1 1 0 0 1 1.415 0l13.79 13.79.021.021 6.19 6.189a1 1 0 0 1-1.415 1.414l-5.4-5.4-3.886 4.984a1.665 1.665 0 0 1-1.949.624c-.68-.248-1.158-.905-1.158-1.715v-6.4H5.4c-.809 0-1.334-.55-1.557-1.069-.217-.507-.242-1.176.1-1.745a1 1 0 0 1 .07-.104l2.84-3.614-5.56-5.56a1 1 0 0 1 0-1.415m6.986 8.4-2.442 3.107H9.9a1 1 0 0 1 1 1v6.658l3.568-4.576z" clip-rule="evenodd"/></svg>
